X:1
T:James Gibb editions
T:Adoramus te - Viadana
T:#
%%score [ 1 2 3 4 ]
L:1/8
Q:1/4=100
M:4/4
K:G
V:1 treble nm="Soprano"
V:2 treble nm="Alto"
V:3 treble-8 nm="Tenor"
V:4 bass nm="Bass"
V:1
"^Ludovico da Viadana\n(1560-1627)" z4 A4- | A2"^Adoramus te" A2 A4 | A4 G4 | A8 | ^G8 | A4 (B3 c | %6
w: A\-|* do- ra-|mus te|Chri-|ste,|et be\- *|
 d2) e4 c2- | cB A4 (c2- |[M:4/4] c2 B2) c4 | B4 d4 | G2 G4 G2 | G2 G2 A4 | G4 G2 F2- | %13
w: * ne- di\-|* ci- mus ti\-|* * bi,|qui- a|per san- ctam|Cru- cem tu-|am et pa\-|
 F2 F2 F2 ^G2 | A4 ^G4 | z2 A4 B2 | A2 A2 A4- | A4 A4 || z4 d4- | d2 d2 A2 c2- | c2 c2 B4- | %21
w: * si- o- nem|tu- am|re- de-|mi- sti mun\-|* dum.|Do\-|* mi- ne, Do\-|* mi- ne,|
 B4 z2 B2- | B2 B2[Q:1/4=98] (e3[Q:1/4=96] d |[Q:1/4=95] c2)[Q:1/4=93] B2[Q:1/4=90] (A4- | %24
w: * mi\-|* se- re\- *|* re no\-|
[Q:1/4=87] A2[Q:1/4=86] ^G[Q:1/4=85]F)[Q:1/4=85] G4 |] %25
w: * * * bis.|
V:2
 z4 E4- | E2 E2 =F4 | E4 E2 (E2- | E2 DC D4) | E8 | F4 G4- | G2 G2 A4- | A2 E2 A4 |[M:4/4] G4 G4 | %9
w: A\-|* do- ra-|mus te Chri\-||ste,|et be\-|* ne- di\-|* ci- mus|ti- bi,|
 G4 =F4 | E2 E4 E2 | E2 E2 =F4 | E4 E2 ^D2- | D2 ^D2 D2 E2 | E4 E4 | F6 G2 | E2 F2 E4- | E4 F4 || %18
w: qui- a|per san- ctam|Cru- cem tu-|am et pa\-|* si- o- nem|tu- am|re- de-|mi- sti mun\-|* dum.|
 (D4 G3) G | F4 (E4- | A3) A ^G4 | z2 F4 F2 | (G3 F E4- | E2) E2 E4 | E8 |] %25
w: Do\- * mi-|ne, Do\-|* mi- ne,|mi- se-|re\- * *|* re no-|bis.|
V:3
 A6 A2 | (^c4 d4) | c4 B2 (c2- | cBAG A4) | B8 | d4 d4- | d4 c2 (e2 | ed c3) c =f2 | %8
w: A- do-|ra\- *|mus te Chri\-||ste,|et be\-|* ne- di\-|* * * ci- mus|
[M:4/4][K:treble-8] d4 e4 | e4 A4 | c2 c4 c2 | c2 c2 c4 | c4 B2 B2- | B2 B2 B2 B2 | c4 B4 | d6 d2 | %16
w: ti- bi,|qui- a|per san- ctam|Cru- cem tu-|am et pa\-|* si- o- nem|tu- am|re- de-|
 e2 d2 (^c2 d2- | d2 ^c2) d4 || B6 B2 | A8 | z2 e4 e2 | ^d8 | z4 c2 G2 | A2 B2 c4 | B8 |] %25
w: mi- sti mun\- *|* * dum.|Do- mi-|ne,|Do- mi-|ne,|mi- se-|re- re no-|bis.|
V:4
 z4 A,,4- | A,,2 A,,2 D,4 | A,,4 E,4 | =F,8 | E,8 | D,4 G,4- | G,2 E,2 A,4- | A,2 A,2 =F,4 | %8
w: A\-|* do- ra-|mus te|Chri-|ste,|et be\-|* ne- di\-|* ci- mus|
[M:4/4] G,4 C,4 | E,4 D,4 | C,2 C,4 C,2 | C,2 C,2 =F,4 | C,4 E,2 B,,2- | B,,2 B,,2 B,,2 E,2 | %14
w: ti- bi,|qui- a|per san- ctam|Cru- cem tu-|am et pa\-|* si- o- nem|
 A,,4 E,4 | D,6 B,,2 | ^C,2 D,2 A,,4- | A,,4 D,4 || G,6 G,,2 | D,4 z2 A,2- | A,2 A,,2 E,4 | %21
w: tu- am|re- de-|mi- sti mun\-|* dum.|Do- mi-|ne, Do\-|* mi- ne,|
 B,,6 B,,2 | (E,3 D, C,3 B,, | A,,2) ^G,,2 A,,4 | E,8 |] %25
w: mi- se-|re\- * * *|* re no-|bis.|

